src/components/TopBar/svg/youtube.svg

<svg width='90px' height='20px' viewBox="0 0 90 20" preserveAspectRatio="xMidYMid meet" focusable="false" class="style-scope yt-icon" style="pointer-events: none; display: block;"><g viewBox="0 0 90 20" preserveAspectRatio="xMidYMid meet" class="style-scope yt-icon"><g class="style-scope yt-icon"><path d="M27.9727 3.12324C27.6435 1.89323 26.6768 0.926623 25.4468 0.597366C23.2197 2.24288e-07 14.285 0 14.285 0C14.285 0 5.35042 2.24288e-07 3.12323 0.597366C1.89323 0.926623 0.926623 1.89323 0.597366 3.12324C2.24288e-07 5.35042 0 10 0 10C0 10 2.24288e-07 14.6496 0.597366 16.8768C0.926623 18.1068 1.89323 19.0734 3.12323 19.4026C5.35042 20 14.285 20 14.285 20C14.285 20 23.2197 20 25.4468 19.4026C26.6768 19.0734 27.6435 18.1068 27.9727 16.8768C28.5701 14.6496 28.5701 10 28.5701 10C28.5701 10 28.5677 5.35042 27.9727 3.12324Z" fill="#FF0000" class="style-scope yt-icon"></path><path d="M11.4253 14.2854L18.8477 10.0004L11.4253 5.71533V14.2854Z" fill="white" class="style-scope yt-icon"></path></g><g class="style-scope yt-icon"><g id="youtube-paths" class="style-scope yt-icon"><path d="M34.6024 13.0036L31.3945 1.41846H34.1932L35.3174 6.6701C35.6043 7.96361 35.8136 9.06662 35.95 9.97913H36.0323C36.1264 9.32532 36.3381 8.22937 36.665 6.68892L37.8291 1.41846H40.6278L37.3799 13.0036V18.561H34.6001V13.0036H34.6024Z" class="style-scope yt-icon"></path><path d="M41.4697 18.1937C40.9053 17.8127 40.5031 17.22 40.2632 16.4157C40.0257 15.6114 39.9058 14.5437 39.9058 13.2078V11.3898C39.9058 10.0422 40.0422 8.95805 40.315 8.14196C40.5878 7.32588 41.0135 6.72851 41.592 6.35457C42.1706 5.98063 42.9302 5.79248 43.871 5.79248C44.7976 5.79248 45.5384 5.98298 46.0981 6.36398C46.6555 6.74497 47.0647 7.34234 47.3234 8.15137C47.5821 8.96275 47.7115 10.0422 47.7115 11.3898V13.2078C47.7115 14.5437 47.5845 15.6161 47.3329 16.4251C47.0812 17.2365 46.672 17.8292 46.1075 18.2031C45.5431 18.5771 44.7764 18.7652 43.8098 18.7652C42.8126 18.7675 42.0342 18.5747 41.4697 18.1937ZM44.6353 16.2323C44.7905 15.8231 44.8705 15.1575 44.8705 14.2309V10.3292C44.8705 9.43077 44.7929 8.77225 44.6353 8.35833C44.4777 7.94206 44.2026 7.7351 43.8074 7.7351C43.4265 7.7351 43.156 7.94206 43.0008 8.35833C42.8432 8.77461 42.7656 9.43077 42.7656 10.3292V14.2309C42.7656 15.1575 42.8408 15.8254 42.9914 16.2323C43.1419 16.6415 43.4123 16.8461 43.8074 16.8461C44.2026 16.8461 44.4777 16.6415 44.6353 16.2323Z" class="style-scope yt-icon"></path><path d="M56.8154 18.5634H54.6094L54.3648 17.03H54.3037C53.7039 18.1871 52.8055 18.7656 51.6061 18.7656C50.7759 18.7656 50.1621 18.4928 49.767 17.9496C49.3719 17.4039 49.1743 16.5526 49.1743 15.3955V6.03751H51.9942V15.2308C51.9942 15.7906 52.0553 16.188 52.1776 16.4256C52.2999 16.6631 52.5045 16.783 52.7914 16.783C53.036 16.783 53.2712 16.7078 53.497 16.5573C53.7228 16.4067 53.8874 16.2162 53.9979 15.9858V6.03516H56.8154V18.5634Z" class="style-scope yt-icon"></path><path d="M64.4755 3.68758H61.6768V18.5629H58.9181V3.68758H56.1194V1.42041H64.4755V3.68758Z" class="style-scope yt-icon"></path><path d="M71.2768 18.5634H69.0708L68.8262 17.03H68.7651C68.1654 18.1871 67.267 18.7656 66.0675 18.7656C65.2373 18.7656 64.6235 18.4928 64.2284 17.9496C63.8333 17.4039 63.6357 16.5526 63.6357 15.3955V6.03751H66.4556V15.2308C66.4556 15.7906 66.5167 16.188 66.639 16.4256C66.7613 16.6631 66.9659 16.783 67.2529 16.783C67.4974 16.783 67.7326 16.7078 67.9584 16.5573C68.1842 16.4067 68.3488 16.2162 68.4593 15.9858V6.03516H71.2768V18.5634Z" class="style-scope yt-icon"></path><path d="M80.609 8.0387C80.4373 7.24849 80.1621 6.67699 79.7812 6.32186C79.4002 5.96674 78.8757 5.79035 78.2078 5.79035C77.6904 5.79035 77.2059 5.93616 76.7567 6.23014C76.3075 6.52412 75.9594 6.90747 75.7148 7.38489H75.6937V0.785645H72.9773V18.5608H75.3056L75.5925 17.3755H75.6537C75.8724 17.7988 76.1993 18.1304 76.6344 18.3774C77.0695 18.622 77.554 18.7443 78.0855 18.7443C79.038 18.7443 79.7412 18.3045 80.1904 17.4272C80.6396 16.5476 80.8653 15.1765 80.8653 13.3092V11.3266C80.8653 9.92722 80.7783 8.82892 80.609 8.0387ZM78.0243 13.1492C78.0243 14.0617 77.9867 14.7767 77.9114 15.2941C77.8362 15.8115 77.7115 16.1808 77.5328 16.3971C77.3564 16.6158 77.1165 16.724 76.8178 16.724C76.585 16.724 76.371 16.6699 76.1734 16.5594C75.9759 16.4512 75.816 16.2866 75.6937 16.0702V8.96062C75.7877 8.6196 75.9524 8.34209 76.1852 8.12337C76.4157 7.90465 76.6697 7.79646 76.9401 7.79646C77.2271 7.79646 77.4481 7.90935 77.6034 8.13278C77.7609 8.35855 77.8691 8.73485 77.9303 9.26636C77.9914 9.79787 78.022 10.5528 78.022 11.5335V13.1492H78.0243Z" class="style-scope yt-icon"></path><path d="M84.8657 13.8712C84.8657 14.6755 84.8892 15.2776 84.9363 15.6798C84.9833 16.0819 85.0821 16.3736 85.2326 16.5594C85.3831 16.7428 85.6136 16.8345 85.9264 16.8345C86.3474 16.8345 86.639 16.6699 86.7942 16.343C86.9518 16.0161 87.0365 15.4705 87.0506 14.7085L89.4824 14.8519C89.4965 14.9601 89.5035 15.1106 89.5035 15.3011C89.5035 16.4582 89.186 17.3237 88.5534 17.8952C87.9208 18.4667 87.0247 18.7536 85.8676 18.7536C84.4777 18.7536 83.504 18.3185 82.9466 17.446C82.3869 16.5735 82.1094 15.2259 82.1094 13.4008V11.2136C82.1094 9.33452 82.3987 7.96105 82.9772 7.09558C83.5558 6.2301 84.5459 5.79736 85.9499 5.79736C86.9165 5.79736 87.6597 5.97375 88.1771 6.32888C88.6945 6.684 89.059 7.23433 89.2707 7.98457C89.4824 8.7348 89.5882 9.76961 89.5882 11.0913V13.2362H84.8657V13.8712ZM85.2232 7.96811C85.0797 8.14449 84.9857 8.43377 84.9363 8.83593C84.8892 9.2381 84.8657 9.84722 84.8657 10.6657V11.5641H86.9283V10.6657C86.9283 9.86133 86.9001 9.25221 86.846 8.83593C86.7919 8.41966 86.6931 8.12803 86.5496 7.95635C86.4062 7.78702 86.1851 7.7 85.8864 7.7C85.5854 7.70235 85.3643 7.79172 85.2232 7.96811Z" class="style-scope yt-icon"></path></g></g></g></svg>

<svg width="90" height="20" class="prefix__style-scope prefix__yt-icon" pointer-events="none" display="block"><g class="prefix__style-scope prefix__yt-icon"><g class="prefix__style-scope prefix__yt-icon"><path d="M27.973 3.123A3.578 3.578 0 0025.447.597C23.22 0 14.285 0 14.285 0S5.35 0 3.123.597A3.578 3.578 0 00.597 3.123C0 5.35 0 10 0 10s0 4.65.597 6.877a3.578 3.578 0 002.526 2.526C5.35 20 14.285 20 14.285 20s8.935 0 11.162-.597a3.578 3.578 0 002.526-2.526C28.57 14.65 28.57 10 28.57 10s-.002-4.65-.597-6.877z" fill="red"/><path d="M11.425 14.285L18.848 10l-7.423-4.285v8.57z" fill="#fff" class="prefix__style-scope prefix__yt-icon"/></g><path d="M34.602 13.004L31.395 1.418h2.798l1.124 5.252c.287 1.294.497 2.397.633 3.31h.082c.094-.655.306-1.75.633-3.291l1.164-5.27h2.799L37.38 13.003v5.557H34.6v-5.557h.002zM41.47 18.194c-.565-.381-.967-.974-1.207-1.778-.237-.805-.357-1.872-.357-3.208V11.39c0-1.348.136-2.432.409-3.248.273-.816.699-1.413 1.277-1.787.579-.374 1.338-.563 2.279-.563.927 0 1.667.191 2.227.572.558.381.967.978 1.225 1.787.26.812.389 1.891.389 3.239v1.818c0 1.336-.128 2.408-.38 3.217-.25.811-.66 1.404-1.224 1.778-.565.374-1.332.562-2.298.562-.997.002-1.776-.19-2.34-.571zm3.165-1.962c.156-.409.236-1.074.236-2.001v-3.902c0-.898-.078-1.557-.236-1.97-.157-.417-.432-.624-.828-.624-.38 0-.651.207-.806.623-.158.417-.235 1.073-.235 1.971v3.902c0 .927.075 1.594.225 2.001.15.41.421.614.816.614.396 0 .67-.204.828-.614zM56.815 18.563H54.61l-.244-1.533h-.061c-.6 1.157-1.498 1.736-2.698 1.736-.83 0-1.444-.273-1.839-.816-.395-.546-.593-1.397-.593-2.554V6.037h2.82v9.193c0 .56.061.957.184 1.195.122.237.327.357.613.357.245 0 .48-.075.706-.226.226-.15.39-.34.5-.571v-9.95h2.818v12.527z" class="prefix__style-scope prefix__yt-icon"/><path d="M64.475 3.688h-2.798v14.875h-2.759V3.688H56.12V1.42h8.356v2.268z" class="prefix__style-scope prefix__yt-icon"/><path d="M71.277 18.563H69.07l-.245-1.533h-.06c-.6 1.157-1.499 1.736-2.699 1.736-.83 0-1.443-.273-1.839-.816-.395-.546-.592-1.397-.592-2.554V6.037h2.82v9.193c0 .56.06.957.183 1.195.122.237.327.357.614.357.244 0 .48-.075.705-.226.226-.15.39-.34.501-.571v-9.95h2.818v12.527zM80.609 8.039c-.172-.79-.447-1.362-.828-1.717-.38-.355-.905-.532-1.573-.532-.518 0-1.002.146-1.451.44-.45.294-.798.677-1.042 1.155h-.021v-6.6h-2.717v17.776h2.329l.287-1.186h.06c.22.424.546.755.981 1.002.436.245.92.367 1.451.367.953 0 1.656-.44 2.105-1.317.45-.88.675-2.25.675-4.118v-1.982c0-1.4-.087-2.498-.256-3.288zm-2.585 5.11c0 .913-.037 1.628-.113 2.145-.075.518-.2.887-.378 1.103a.871.871 0 01-.715.327c-.233 0-.447-.054-.645-.165a1.232 1.232 0 01-.48-.489V8.96c.095-.34.26-.618.492-.837.23-.218.485-.327.755-.327a.76.76 0 01.663.337c.158.226.266.602.327 1.133.061.532.092 1.287.092 2.268v1.615h.002zM84.866 13.871c0 .804.023 1.407.07 1.809.047.402.146.694.297.88.15.183.38.274.693.274.421 0 .713-.164.868-.491.158-.327.243-.873.257-1.634l2.431.143c.014.108.022.259.022.45 0 1.156-.318 2.022-.95 2.593-.633.572-1.53.859-2.686.859-1.39 0-2.364-.436-2.921-1.308-.56-.873-.838-2.22-.838-4.045v-2.187c0-1.88.29-3.253.868-4.118.579-.866 1.569-1.299 2.973-1.299.966 0 1.71.177 2.227.532.517.355.882.905 1.094 1.656.211.75.317 1.785.317 3.106v2.145h-4.722v.635zm.357-5.903c-.143.176-.237.466-.287.868-.047.402-.07 1.011-.07 1.83v.898h2.062v-.898c0-.805-.028-1.414-.082-1.83-.054-.416-.153-.708-.296-.88-.144-.169-.365-.256-.664-.256-.3.002-.522.092-.663.268z" class="prefix__style-scope prefix__yt-icon"/></g></svg>
